X: 21492
T: MRS. MURRAY -- Strathspey
R: strathspey
B: K\"ohler's Violin Repository, v.2, 1885 p.149 #2
F: http://www.archive.org/details/klersviolinrepos02rugg
Z: 2012 John Chambers <jc:trillian.mit.edu>
M: C|
L: 1/16
K: A
uc2 |\
[E3C3](Ac3e) [E3C3](Ac3e) | (d3B)(c3A) FFF2 {GF^E}F4 |\
[E3C3](Ac3e) [E3C3](Ac3f) | (.e3.d)(c3B) AAA2 A2 :|
ug2 |\
(fefg) (a3c) (e3c)(a3c) | (d3B)(c3A) FFF2 ~F4 |\
(fefg) (a3c) (e3c) (a3c) | (fefg) (a3c) AAA2 (A3 ||
g) |\
(fefg) (a3c) (e3c) (a3c) | (d3B)(c3A) FFF2 ~F4 |\
A,3(Ac3e) E3(Ac3f) | (.e2.d2)(c3B) AAA2 "_Segue Reel."A4 "^D.C."|]

%%sep 2 1 500

